X:11811
T:Newport Lass
M:6/8
L:1/8
K:D Major
B|ABA DED|d=cA AGE|ABA ABc|dAB cde|!
ABA DED|d=cA AGE|GFG Ade|fdc d2:|!
e|fed edB|ABA d2e|fef gfg|ABc d2f|!
gfg aff|edB AFD|GFG Ade|fdc d2:|!
